packages/gestalt-icons-android/vr-theme/ic_vr_magic-wand_gestalt.svg

<svg width="24" height="24" viewBox="0 0 24 24" fill="none" xmlns="http://www.w3.org/2000/svg">
<path d="M5.84997 0H5.14997L5.04874 0.434418C4.74622 1.7326 3.73257 2.74625 2.43439 3.04877L1.99997 3.15V3.85L2.43439 3.95123C3.73257 4.25375 4.74622 5.2674 5.04874 6.56558L5.14997 7H5.84997L5.9512 6.56558C6.25372 5.2674 7.26737 4.25375 8.56555 3.95123L8.99997 3.85V3.15L8.56555 3.04877C7.26737 2.74625 6.25372 1.7326 5.9512 0.434419L5.84997 0Z" fill="black"/>
<path d="M19.3867 18.3724L19.3 18H18.7L18.6132 18.3724C18.3539 19.4851 17.4851 20.3539 16.3723 20.6132L16 20.7V21.3L16.3723 21.3868C17.4851 21.6461 18.3539 22.5149 18.6132 23.6276L18.7 24H19.3L19.3867 23.6276C19.646 22.5149 20.5149 21.6461 21.6276 21.3868L22 21.3V20.7L21.6276 20.6132C20.5149 20.3539 19.646 19.4851 19.3867 18.3724Z" fill="black"/>
<path d="M23 15.5C23 16.3284 22.3284 17 21.5 17C20.6715 17 20 16.3284 20 15.5C20 14.6716 20.6715 14 21.5 14C22.3284 14 23 14.6716 23 15.5Z" fill="black"/>
<path fill-rule="evenodd" clip-rule="evenodd" d="M20.4142 2C19.6331 1.21895 18.3668 1.21895 17.5858 2L1.99997 17.5858C1.21892 18.3668 1.21892 19.6332 1.99997 20.4142L3.58576 22C4.36681 22.781 5.63314 22.781 6.41418 22L22 6.41421C22.781 5.63316 22.781 4.36683 22 3.58579L20.4142 2ZM17.5858 8L4.99997 20.5858L3.41418 19L16 6.41421L17.5858 8ZM18.1213 4.29289C18.1212 4.29301 18.1214 4.29277 18.1213 4.29289C17.7311 4.68345 17.7309 5.3167 18.1213 5.70711L18.2929 5.87868C18.6833 6.26915 19.3164 6.2692 19.7069 5.87885L20.5858 5L19 3.41421L18.1213 4.29289Z" fill="black"/>
</svg>

<svg xmlns="http://www.w3.org/2000/svg" width="24" height="24"><path d="M5.85 0h-.7l-.1.43a3.5 3.5 0 0 1-2.62 2.62l-.43.1v.7l.43.1a3.5 3.5 0 0 1 2.62 2.62l.1.43h.7l.1-.43a3.5 3.5 0 0 1 2.62-2.62l.43-.1v-.7l-.43-.1A3.5 3.5 0 0 1 5.95.43zm13.54 18.37L19.3 18h-.6l-.09.37a3 3 0 0 1-2.24 2.24l-.37.09v.6l.37.09a3 3 0 0 1 2.24 2.24l.09.37h.6l.09-.37a3 3 0 0 1 2.24-2.24l.37-.09v-.6l-.37-.09a3 3 0 0 1-2.24-2.24M21.5 14a1.5 1.5 0 1 0 0 3 1.5 1.5 0 0 0 0-3M20.41 2a2 2 0 0 0-2.82 0L2 17.59a2 2 0 0 0 0 2.82L3.59 22a2 2 0 0 0 2.82 0L22 6.41a2 2 0 0 0 0-2.82zM17.6 8 5 20.59 3.41 19 16 6.41zM19 3.41 20.59 5l-.88.88a1 1 0 0 1-1.42 0l-.17-.17a1 1 0 0 1 0-1.42z"/></svg>
